_includes/icons/color-redo.svg

<svg fill="#666" height="50" viewBox="0 0 48 48" width="50" xmlns="http://www.w3.org/2000/svg"><g fill="#00bcd4"><path d="m43 18-14-11.699219v23.398438z"/><path d="m20 14h12v8h-12c-2.800781 0-5 2.199219-5 5s2.199219 5 5 5h3v8h-3c-7.199219 0-13-5.800781-13-13s5.800781-13 13-13z"/></g></svg>

<svg xmlns="http://www.w3.org/2000/svg" viewBox="0 0 48 48" width="50" height="50" fill="#666"><g fill="#00bcd4"><path d="M 43 18 L 29 6.300781 L 29 29.699219 Z"/><path d="M 20 14 L 32 14 L 32 22 L 20 22 C 17.199219 22 15 24.199219 15 27 C 15 29.800781 17.199219 32 20 32 L 23 32 L 23 40 L 20 40 C 12.800781 40 7 34.199219 7 27 C 7 19.800781 12.800781 14 20 14 Z"/></g></svg>
